nirvana.svg

<svg width="134" height="24" viewBox="0 0 134 24" fill="none" xmlns="http://www.w3.org/2000/svg">
<path d="M29.5557 20.3491V3.68247C29.5557 3.61394 29.612 3.55758 29.6806 3.55758H32.4784C32.5408 3.55758 32.5941 3.6048 32.6017 3.66724L32.8637 5.70963C32.8789 5.82386 33.0236 5.85889 33.0891 5.76446C34.1948 4.15918 36.2357 3.04736 38.6208 3.04736C42.2273 3.04736 44.5896 5.47356 44.5896 9.27202V20.3506C44.5896 20.4191 44.5332 20.4755 44.4647 20.4755H40.948C40.8794 20.4755 40.8231 20.4191 40.8231 20.3506V9.46391C40.8231 7.58144 39.5788 6.3356 37.4709 6.3356C35.0127 6.3356 33.3541 8.02769 33.3221 10.23V20.3506C33.3221 20.4191 33.2658 20.4755 33.1972 20.4755H29.6806C29.612 20.474 29.5557 20.4176 29.5557 20.3491Z" fill="white"/>
<path d="M46.6826 20.3491V3.68251C46.6826 3.61397 46.739 3.55762 46.8075 3.55762H50.3242C50.3927 3.55762 50.4491 3.61397 50.4491 3.68251V20.3491C50.4491 20.4176 50.3927 20.474 50.3242 20.474H46.8075C46.739 20.474 46.6826 20.4176 46.6826 20.3491Z" fill="white"/>
<path d="M52.6709 20.3491V3.68251C52.6709 3.61397 52.7273 3.55762 52.7958 3.55762H55.5936C55.6561 3.55762 55.7094 3.60331 55.717 3.66575L56.0962 6.48032C56.113 6.60064 56.2729 6.62806 56.3292 6.52144C57.441 4.45468 58.5041 3.58656 61.1649 3.58656H61.6858C61.7512 3.58656 61.8045 3.63986 61.8045 3.70535L63.1174 7.02709C63.1189 7.03166 63.1159 7.03623 63.1113 7.03623H62.0239C58.5133 7.03623 56.4389 8.9187 56.4389 12.111V20.3491C56.4389 20.4176 56.3825 20.474 56.314 20.474H52.7973C52.7273 20.474 52.6709 20.4176 52.6709 20.3491Z" fill="white"/>
<path d="M70.364 20.3978L63.4143 3.72972C63.3793 3.64748 63.4402 3.55762 63.5301 3.55762H67.3438C67.3956 3.55762 67.4412 3.5896 67.4595 3.63681L72.2586 15.745C72.2997 15.85 72.449 15.85 72.4901 15.745L77.2587 3.63834C77.277 3.59112 77.3242 3.55914 77.3745 3.55914H81.1882C81.2765 3.55914 81.3374 3.65052 81.3039 3.73124L74.3543 20.3978C74.3345 20.445 74.2888 20.474 74.2386 20.474H70.4797C70.4294 20.474 70.3838 20.4435 70.364 20.3978Z" fill="white"/>
<path d="M80.6602 11.9206C80.6602 6.6859 83.8844 3.04736 88.385 3.04736C90.8919 3.04736 92.9983 4.16223 94.1375 5.90458C94.2015 6.00206 94.3507 5.96703 94.366 5.85127L94.6295 3.66724C94.6371 3.6048 94.6904 3.55758 94.7528 3.55758H97.5491C97.6177 3.55758 97.674 3.61394 97.674 3.68247V20.3491C97.674 20.4176 97.6177 20.474 97.5491 20.474H94.0644C93.9959 20.474 93.9395 20.4176 93.9395 20.3491V18.5808C93.9395 18.459 93.7857 18.4102 93.7141 18.5077C92.5992 20.0338 90.7792 20.9522 88.5129 20.9522C83.9469 20.9522 80.6602 17.2497 80.6602 11.9206ZM93.938 11.8886C93.938 8.53639 92.0235 6.20766 89.2775 6.20766C86.469 6.20766 84.5211 8.5699 84.5211 11.9526C84.5211 15.3672 86.4355 17.7614 89.2135 17.7614C91.99 17.7614 93.938 15.3352 93.938 11.8886Z" fill="white"/>
<path d="M99.5703 20.3491V3.68247C99.5703 3.61394 99.6267 3.55758 99.6952 3.55758H102.493C102.555 3.55758 102.609 3.6048 102.616 3.66724L102.878 5.70963C102.894 5.82386 103.038 5.85889 103.104 5.76446C104.209 4.15918 106.25 3.04736 108.635 3.04736C112.242 3.04736 114.604 5.47356 114.604 9.27202V20.3506C114.604 20.4191 114.548 20.4755 114.479 20.4755H110.963C110.894 20.4755 110.838 20.4191 110.838 20.3506V9.46391C110.838 7.58144 109.593 6.3356 107.486 6.3356C105.027 6.3356 103.369 8.02769 103.337 10.23V20.3506C103.337 20.4191 103.28 20.4755 103.212 20.4755H99.6952C99.6267 20.474 99.5703 20.4176 99.5703 20.3491Z" fill="white"/>
<path d="M115.945 11.9206C115.945 6.6859 119.17 3.04736 123.67 3.04736C126.177 3.04736 128.283 4.16223 129.423 5.90458C129.487 6.00206 129.636 5.96703 129.651 5.85127L129.915 3.66724C129.922 3.6048 129.976 3.55758 130.038 3.55758H132.834C132.903 3.55758 132.959 3.61394 132.959 3.68247V20.3491C132.959 20.4176 132.903 20.474 132.834 20.474H129.35C129.281 20.474 129.225 20.4176 129.225 20.3491V18.5808C129.225 18.459 129.071 18.4102 128.999 18.5077C127.884 20.0338 126.064 20.9522 123.798 20.9522C119.234 20.9522 115.945 17.2497 115.945 11.9206ZM129.223 11.8886C129.223 8.53639 127.309 6.20766 124.563 6.20766C121.754 6.20766 119.806 8.5699 119.806 11.9526C119.806 15.3672 121.721 17.7614 124.499 17.7614C127.277 17.7614 129.223 15.3352 129.223 11.8886Z" fill="white"/>
<path d="M10.8193 15.0674C12.5134 15.0674 13.8867 13.6941 13.8867 12C13.8867 10.3059 12.5134 8.93262 10.8193 8.93262C9.12527 8.93262 7.75195 10.3059 7.75195 12C7.75195 13.6941 9.12527 15.0674 10.8193 15.0674Z" fill="#F3EFEB"/>
<path d="M15.0852 16.0586C11.4771 16.8353 9.18193 20.3916 9.95868 23.9997C13.5683 23.2214 15.8635 19.6667 15.0852 16.0586Z" fill="#9073F2"/>
<path d="M12.2012 6.24741C14.6624 8.99801 18.8888 9.23256 21.6394 6.77133C19.1767 4.0192 14.9518 3.78466 12.2012 6.24741Z" fill="#9073F2"/>
<path d="M0 17.2285C2.7506 14.7673 6.97703 15.0019 9.43825 17.754C6.68613 20.2152 2.46123 19.9791 0 17.2285Z" fill="#AD9D92"/>
<path d="M11.6805 0C12.4572 3.60807 10.1605 7.16437 6.55243 7.93959C5.77568 4.33152 8.07089 0.776748 11.6805 0Z" fill="#AD9D92"/>
<path d="M0.87093 5.26074C4.37544 6.4213 6.27466 10.203 5.11411 13.7075C1.61112 12.547 -0.289623 8.76525 0.87093 5.26074Z" fill="#9073F2"/>
<path d="M16.4787 10.3369C19.9833 11.4975 21.8825 15.2792 20.7219 18.7837C17.2189 17.6216 15.3197 13.8414 16.4787 10.3369Z" fill="#AD9D92"/>
</svg>

<svg xmlns="http://www.w3.org/2000/svg" width="134" height="24" fill="none"><path fill="#fff" d="M29.556 20.35V3.681c0-.068.056-.124.125-.124h2.797c.063 0 .116.047.124.11l.262 2.042c.015.114.16.149.225.054 1.106-1.605 3.147-2.717 5.532-2.717 3.606 0 5.969 2.427 5.969 6.225v11.079a.126.126 0 0 1-.125.125h-3.517a.125.125 0 0 1-.125-.125V9.464c0-1.883-1.244-3.128-3.352-3.128-2.458 0-4.117 1.692-4.149 3.894v10.12a.125.125 0 0 1-.125.125h-3.516a.13.13 0 0 1-.125-.126M46.683 20.35V3.682c0-.069.056-.125.124-.125h3.517c.069 0 .125.056.125.125v16.666a.126.126 0 0 1-.125.125h-3.517a.126.126 0 0 1-.124-.125M52.67 20.35V3.682c0-.069.057-.125.126-.125h2.798c.062 0 .115.045.123.108l.38 2.814c.016.12.176.148.232.041 1.112-2.066 2.175-2.934 4.836-2.934h.52c.066 0 .12.053.12.118l1.312 3.322q.002.009-.006.01h-1.087c-3.51 0-5.585 1.882-5.585 5.074v8.238a.126.126 0 0 1-.125.125h-3.517a.126.126 0 0 1-.126-.125M70.364 20.398 63.414 3.73a.124.124 0 0 1 .116-.172h3.814c.052 0 .097.032.116.079l4.799 12.108c.04.105.19.105.231 0L77.26 3.638a.13.13 0 0 1 .115-.079h3.814c.088 0 .15.092.116.172l-6.95 16.667a.12.12 0 0 1-.115.076h-3.76a.13.13 0 0 1-.115-.076M80.66 11.92c0-5.234 3.224-8.873 7.725-8.873 2.507 0 4.613 1.115 5.752 2.858a.125.125 0 0 0 .229-.054l.263-2.184a.125.125 0 0 1 .124-.11h2.796c.069 0 .125.057.125.125V20.35a.125.125 0 0 1-.125.125h-3.485a.126.126 0 0 1-.124-.125v-1.768a.124.124 0 0 0-.226-.073c-1.115 1.526-2.935 2.444-5.201 2.444-4.566 0-7.853-3.702-7.853-9.031m13.278-.031c0-3.353-1.915-5.681-4.66-5.681-2.809 0-4.757 2.362-4.757 5.745 0 3.414 1.915 5.808 4.692 5.808s4.725-2.426 4.725-5.872M99.57 20.35V3.681c0-.068.057-.124.125-.124h2.798c.062 0 .116.047.123.11l.262 2.042c.016.114.16.149.226.054 1.105-1.605 3.146-2.717 5.531-2.717 3.607 0 5.969 2.427 5.969 6.225v11.079a.125.125 0 0 1-.125.125h-3.516a.125.125 0 0 1-.125-.125V9.464c0-1.883-1.245-3.128-3.352-3.128-2.459 0-4.117 1.692-4.149 3.894v10.12a.126.126 0 0 1-.125.125h-3.517a.13.13 0 0 1-.125-.126M115.945 11.92c0-5.234 3.225-8.873 7.725-8.873 2.507 0 4.613 1.115 5.753 2.858a.125.125 0 0 0 .228-.054l.264-2.184a.124.124 0 0 1 .123-.11h2.796c.069 0 .125.057.125.125V20.35a.125.125 0 0 1-.125.125h-3.484a.125.125 0 0 1-.125-.125v-1.768c0-.122-.154-.17-.226-.073-1.115 1.526-2.935 2.444-5.201 2.444-4.564 0-7.853-3.702-7.853-9.031m13.278-.031c0-3.353-1.914-5.681-4.66-5.681-2.809 0-4.757 2.362-4.757 5.745 0 3.414 1.915 5.808 4.693 5.808s4.724-2.426 4.724-5.872"/><path fill="#F3EFEB" d="M10.82 15.067a3.067 3.067 0 1 0 0-6.134 3.067 3.067 0 0 0 0 6.134"/><path fill="#9073F2" d="M15.085 16.059a6.684 6.684 0 0 0-5.126 7.94 6.683 6.683 0 0 0 5.126-7.94M12.201 6.247a6.685 6.685 0 0 0 9.438.524 6.68 6.68 0 0 0-9.438-.524"/><path fill="#AD9D92" d="M0 17.229a6.684 6.684 0 0 1 9.438.525A6.685 6.685 0 0 1 0 17.228M11.68 0a6.683 6.683 0 0 1-5.128 7.94A6.683 6.683 0 0 1 11.681 0"/><path fill="#9073F2" d="M.87 5.26a6.684 6.684 0 0 1 4.244 8.448A6.685 6.685 0 0 1 .871 5.26"/><path fill="#AD9D92" d="M16.479 10.337a6.684 6.684 0 0 1 4.243 8.447 6.687 6.687 0 0 1-4.243-8.447"/></svg>
